X: 1
T:Happy to Meet, Sorry to Part
M:6/8
L:1/8
R:jig
B:Ryan's Mammoth Collection
N:83 427
Z:Contributed by Ray Davies,  ray:davies99.freeserve.co.uk
K:G
vg/e/"^Segno"|\
dBB BAB | GEF G2A | Bee dBA | B2B gfe |
dBB BAB | GEF G2A | Bee dBA | BGG G2:|
|:ue|\
g2g fed | Bdd def | g2g fed | Bee e2f |
g2g fed | Bdd def | gfg eag | fef gfe "^Segno":|
